symbols/web/vibration/materialsymbolssharp/vibration_grad200_24px.svg

<svg xmlns="http://www.w3.org/2000/svg" height="24" width="24"><path d="M-1.15 15.35v-6.7H1.5v6.7Zm3.2 2.05V6.6H4.7v10.8Zm20.45-2.05v-6.7h2.65v6.7Zm-3.2 2.05V6.6h2.65v10.8ZM5.25 21.8V2.2h13.5v19.6Zm2.65-2.65h8.2V4.85H7.9Zm0-14.3v14.3Z"/></svg>

<svg xmlns="http://www.w3.org/2000/svg" height="24" width="24"><path d="M-1.15 15.35V8.65H1.5V15.35ZM2.05 17.4V6.6H4.7V17.4ZM22.5 15.35V8.65H25.15V15.35ZM19.3 17.4V6.6H21.95V17.4ZM5.25 21.8V2.2H18.75V21.8ZM7.9 19.15H16.1V4.85H7.9ZM7.9 4.85V19.15Z"/></svg>
